svg/nuxt.svg

<svg xmlns="http://www.w3.org/2000/svg" viewBox="0 0 24 24"><path d="M21.8 18.36 16.03 8.08c-.1-.08-.4-.65-1-.65-.25 0-.6.1-.96.65l-.74 1.18-2.02-3.61c-.05-.1-.4-.65-1-.65-.25 0-.65.1-.95.65L2.18 18.31c-.05.1-.35.69-.05 1.19.1.25.4.5 1.06.5h17.66c.1 0 .75 0 1.05-.5.1-.24.2-.64-.1-1.14m-13.7-.05-.15.55H3.24l7.12-12.52 2.3 4.13zm1.11.55 4.11-7.2 4.18 7.2zm9.53 0-.2-.55L14 10.46l1.03-1.73 5.72 10.13z"/></svg>

<?xml version="1.0" encoding="UTF-8"?><!DOCTYPE svg PUBLIC "-//W3C//DTD SVG 1.1//EN" "http://www.w3.org/Graphics/SVG/1.1/DTD/svg11.dtd"><svg xmlns="http://www.w3.org/2000/svg" xmlns:xlink="http://www.w3.org/1999/xlink" version="1.1" id="mdi-nuxt" width="24" height="24" viewBox="0 0 24 24"><path d="M21.8 18.36L16.03 8.08C15.93 8 15.63 7.43 15.03 7.43C14.78 7.43 14.43 7.53 14.07 8.08L13.33 9.26L11.31 5.65C11.26 5.55 10.91 5 10.31 5C10.06 5 9.66 5.1 9.36 5.65L2.18 18.31C2.13 18.41 1.83 19 2.13 19.5C2.23 19.75 2.53 20 3.19 20H20.85C20.95 20 21.6 20 21.9 19.5C22 19.26 22.1 18.86 21.8 18.36M8.1 18.31L7.95 18.86H3.24L10.36 6.34L12.66 10.47L8.1 18.31M9.21 18.86L13.32 11.66L17.5 18.86H9.21M18.74 18.86L18.54 18.31L14 10.46L15.03 8.73L20.75 18.86H18.74Z" /></svg>
